X: 13073
T: Finnish, The
R: polka
M: 2/4
K: Gmajor
|:"G" !downbow! d!downbow! d/d/ dd|d^c/d/ ed|BB/B/ BB|BA/B/ cB|
"D7" AA F/F/D/F/|AA F/F/D/F/|AA B>A|"G" AG G2:|
|:"G" DD B,D|G2> A2|BB AB|"C" .c2 "G" B2|
"D7" AA F/F/D/F/|AA F/F/D/F/|AA B>A|"G" AG G2:|

